X: 1422
T: Young Arthur Daly
M:2/4
L:1/16
N:"collected by Cronin"
B:O'Neill's 1422
Z:"Transcribed by Bob Safranek, rjs@gsp.org"
K:A
A,2CE Acec | dfec BcAF | E2CE Acec | dfec (3:2AAAA2  :|
agab  aeca | eaca eaca | agab aeca | befg a2((3:2efg) |
agae  faec | dBcA BcAF | E2CE Acec | dfec (3:2AAAA2   |]


